X: 1
T: A-Rovin'   [A]
M: C|
L: 1/4
K: A
E \
| "A"AA "E7"GE | "A"AA "E7"GE | "A"A>B cd | e3 e || "D"ff df | "A"ee ce |
| "D(Bm)"dc BA | "F#m"cA "E7"FE || "A"A>B cd | "A"ea "D"fd | "A"c2 "E7"B2 | "A"A3 e || "D"f>e df |
| "A"e>d ce | "Bm"dc BA | "F#m"cA "E7"FE || "A"A>B cd | "A"ea "D"fd | "A"c2 "E7"B2 | "A"A3 |]
